components/icon/svg/24/ticket_bahnbonus-card.svg

<?xml version="1.0" encoding="UTF-8"?>
<svg width="24px" height="24px" viewBox="0 0 24 24" version="1.1" xmlns="http://www.w3.org/2000/svg" xmlns:xlink="http://www.w3.org/1999/xlink">
    <!-- Generator: Sketch 64 (93537) - https://sketch.com -->
    <title>ic-db_ticket_bahnbonus-card_24</title>
    <desc>Created with Sketch.</desc>
    <g id="Symbols:Icon" stroke="none" stroke-width="1" fill="none" fill-rule="evenodd">
        <g id="24dp-Icon/Ticket/BahnBonus-Card" fill="#282D37">
            <path d="M19.5,5 C20.875,5 22,6.125 22,7.5 L22,16.5 C22,17.875 20.875,19 19.5,19 L4.5,19 C3.125,19 2,17.875 2,16.5 L2,7.5 C2,6.125 3.125,5 4.5,5 L19.5,5 Z M7.03125,7 L4.5,7 C4.21875,7 4,7.2188 4,7.5 L4,16.5 C4,16.7812 4.21875,17 4.5,17 L10.5,17 C10.15625,16.6875 9.96875,16.25 9.96875,15.8125 C9.96875,14.875 10.71875,14.1875 11.625,14.1875 C12.53125,14.1875 13.25,14.9062 13.25,15.8125 C13.25,16.25 13.0625,16.6875 12.71875,17 L19.5,17 C19.78125,17 20,16.7812 20,16.5 L20,7.5 C20,7.2188 19.78125,7 19.5,7 L10.71875,7 C11.09375,7.4375 11.28125,8 11.28125,8.5625 C11.28125,9.9062 10.21875,11 8.875,11 C7.5,11 6.4375,9.875 6.4375,8.5312 C6.4375,7.9688 6.65625,7.4375 7.03125,7 Z M11.75,11 C11.75,9.2812 13.125,7.875 14.84375,7.875 C16.5625,7.875 17.9375,9.2812 17.9375,11 C17.9375,12.7188 16.5625,14.0938 14.84375,14.0938 C13.125,14.0938 11.75,12.7188 11.75,11 Z" id="🎨-Color"></path>
        </g>
    </g>
</svg>

<svg width="24" height="24" xmlns="http://www.w3.org/2000/svg"><path d="M19.5 5C20.875 5 22 6.125 22 7.5v9c0 1.375-1.125 2.5-2.5 2.5h-15A2.507 2.507 0 012 16.5v-9C2 6.125 3.125 5 4.5 5h15zM7.031 7H4.5c-.281 0-.5.219-.5.5v9c0 .281.219.5.5.5h6a1.614 1.614 0 01-.531-1.188c0-.937.75-1.624 1.656-1.624A1.614 1.614 0 0112.719 17H19.5c.281 0 .5-.219.5-.5v-9c0-.281-.219-.5-.5-.5h-8.781a2.4 2.4 0 01.562 1.563C11.281 9.905 10.22 11 8.875 11 7.5 11 6.437 9.875 6.437 8.531c0-.562.22-1.094.594-1.531zm4.719 4c0-1.719 1.375-3.125 3.094-3.125 1.719 0 3.094 1.406 3.094 3.125a3.08 3.08 0 01-3.094 3.094A3.08 3.08 0 0111.75 11z" fill="#282D37" fill-rule="evenodd"/></svg>
